!!!COM:      Bach, Johann Sebastian
!!!CDT:      1685/03/31/-1750/07/28/
!!!OPR@@GER: Das wohltemperirte Clavier
!!!OVM@@GER: Band I
!!!OPR@ENG:  Well-Tempered Clavier
!!!OVM@ENG:  Book I
!!!OTL:      Prelude
!!!OKY:      G-sharp minor
!!!ONM:      no. 18
!!!SCT:      BWV 863
!!!OMV:      1
**kern	**kern	**kern	**kern
*clefF4	*clefF4	*	*clefG2
*k[f#c#g#d#a#]	*k[f#c#g#d#a#]	*	*k[f#c#g#d#a#]
*g#:	*g#:	*	*g#:
*M6/8	*M6/8	*	*M6/8
*MM57	*MM57	*MM57	*MM57
=1-	=1-	=1-	=1-
4.G#	8B	2.ryy	16g#
.	.	.	16a#
.	8d#	.	16b
.	.	.	16g#
.	[8c#	.	16a#
.	.	.	16cc#
4.F##	8c#]	.	8ee
.	8B	.	8dd#
.	8A#	.	8cc#
=2	=2	=2	=2
*	*	*staff:14	*
*	*	*clefG2	*
*	*	*k[f#c#g#d#a#]	*
16G#	4b	8ryy	8b
16A#	.	.	.
16B	.	8dd#	4gg#
16G#	.	.	.
16A#	[8a#	[8cc#	.
16c#	.	.	.
8e	8a#]	8cc#]	4.ff##
8d#	[4d#	8b	.
8c#	.	8a#	.
=3	=3	=3	=3
4.B	8d#]	8dd#	16gg#
.	.	.	16aa#
.	8g#	8ryy	16bb
.	.	.	16dd#
.	[8c#	8ryy	16ee
.	.	.	16gg#
4.A#	8c#]	4ryy	16ff#
.	.	.	16gg#
.	8f#	.	16aa#
.	.	.	16cc#
.	[8B	8ryy	16dd#
.	.	.	16ff#
=4	=4	=4	=4
*	*staff:14	*	*
*	*clefG2	*	*
4G#	8B]	2.ryy	16ee
.	.	.	16ff#
.	[4e	.	16gg#
.	.	.	16b
8E	.	.	16cc#
.	.	.	16ee
8F#	8e]	.	16a#
.	.	.	16b
8G#	8d#	.	16cc#
.	.	.	16f#
8A#	8c#	.	16cc#
.	.	.	16ee
=5	=5	=5	=5
8B	16B	2.ryy	16dd#
.	16c#	.	16ee
8r	16d#	.	16ff#
.	16B	.	16dd#
8r	16c#	.	16ee
.	16e	.	16gg#
4r	8g#	.	16b
.	.	.	16a#
.	8f#	.	16b
.	.	.	16a#
8r	8e	.	16b
.	.	.	[16cc#
=6	=6	=6	=6
16BB	16d#	2.ryy	8cc#]
16C#	16e	.	.
16D#	16f#	.	[4b
16BB	16d#	.	.
16C#	16e	.	.
16E	16g#	.	.
8G#	[4.c#	.	16b]
.	.	.	16b
8F#	.	.	16a#
.	.	.	16b
8E	.	.	16cc#
.	.	.	16a#
=7	=7	=7	=7
16D#	8c#]	2.ryy	[4.f#
16E	.	.	.
16F#	16B	.	.
16D#	16An	.	.
16E#	16c#	.	.
16G#	16B	.	.
8B	8dn	.	16f#]
.	.	.	16e#
8An	8c#	.	16f#
.	.	.	16e#
8G#	[8B	.	16f#
.	.	.	16g#
=8	=8	=8	=8
[4.F#	8B]	2.ryy	16c#
.	.	.	16d#
.	16An	.	16en
.	16G#	.	16c#
.	16A	.	16d#
.	16F#	.	16f#
16F#]	8B#	.	8an
16F#	.	.	.
16E	8c#	.	8g#
16D#	.	.	.
16C#	8d#	.	8f#
16BB#	.	.	.
=9	=9	=9	=9
4.C#	16G#	2.ryy	4e
.	16A#X	.	.
.	16Bn	.	.
.	16G#	.	.
.	16A#	.	8cc#
.	16c#	.	.
16FF##	8e	.	[4.a#X
16c#	.	.	.
16B	8d#	.	.
16A#	.	.	.
16G#	8c#	.	.
16F##X	.	.	.
=10	=10	=10	=10
[4.G#	4.B	2.ryy	16a#]
.	.	.	16g#
.	.	.	16f##
.	.	.	16a#
.	.	.	16g#
.	.	.	16e#
16G#]	[4.A#	.	8c##
16G#	.	.	.
16F#X	.	.	8d#
16E#	.	.	.
16D#	.	.	8e#X
16C##	.	.	.
=11	=11	=11	=11
16D#	8A#]	2.ryy	4.f#
16E#	.	.	.
16F#	8d#	.	.
16AA#	.	.	.
16BB	[8G#	.	.
16D#	.	.	.
16C#	8G#]	.	4.e#
16D#	.	.	.
16E#X	8c#	.	.
16GG#	.	.	.
16AA#	[8F#	.	.
16C#	.	.	.
=12	=12	=12	=12
16BB	8F#]	2.ryy	8.d#
16C#	.	.	.
16D#	[4B	.	.
16FF#	.	.	16d#
16GG#	.	.	16e#
16BB	.	.	16f#
8CC##	16B]	.	8.g#
.	16B	.	.
8C##X	[4A#	.	.
.	.	.	16c##
8AA#	.	.	16e#X
.	.	.	16g#
=13	=13	=13	=13
16D#	16A#]	2.ryy	8.f#
16E#	16A#	.	.
16F#	4d#	.	.
16D#	.	.	16f#
16E#	.	.	16g#
16G#	.	.	16b
8B	4.c##	.	4.e#w
8A#	.	.	.
8G#	.	.	.
=14	=14	=14	=14
16F#	8d#	2.ryy	16d#
16G#	.	.	16e#
16A#	8r	.	16f#
16F#	.	.	16d#
16G#	8r	.	16e#
16B	.	.	16g#
16C##	4r	.	8b
16D#	.	.	.
16E#	.	.	8a#
16AA#	.	.	.
16C##X	8r	.	8g#
16E#X	.	.	.
=15	=15	=15	=15
4.D#	16d#	2.ryy	[4f#
.	16c#	.	.
.	16B	.	.
.	16d#	.	.
.	16c#	.	16f#]
.	16A#	.	16g#
4.C#	8F##	.	16a#
.	.	.	16b
.	8G#	.	16cc#
.	.	.	16a#
.	[8A#	.	16b
.	.	.	16cc#
=16	=16	=16	=16
4.BB	8A#]	2.ryy	16dd#
.	.	.	16cc#
.	8G#	.	16b
.	.	.	16dd#
.	[8e	.	16cc#
.	.	.	16a#
16AA#	8e]	.	8f##
16C#	.	.	.
16BB	8d#	.	8g#
16AA#	.	.	.
16GG#	8c#	.	8a#
16FF##	.	.	.
=17	=17	=17	=17
16GG#	16B	2.ryy	8.b
16FF#X	16d#	.	.
16EE	4g#	.	.
16GG#	.	.	16a#
16FF#	.	.	16b#
16DD#	.	.	16cc#
8BBB#	16f#	.	4.dd#
.	16g#	.	.
8CC#	16an	.	.
.	16f#	.	.
8DD#	16cc#	.	.
.	16b#X	.	.
=18	=18	=18	=18
16EE	4.cc#	2.ryy	16cc#
16FF#	.	.	16dd#
16GG#	.	.	16ee
16EE	.	.	16cc#
16FF#	.	.	16dd#
16AAn	.	.	16ff#
16DD#	8b#	.	8aan
16EE	.	.	.
16FF#	8cc#	.	8gg#
16GG#	.	.	.
16AA#	[8dd#	.	8ff#
16BB#	.	.	.
=19	=19	=19	=19
16C#	8dd#]	2.ryy	[4.ee
16D#	.	.	.
16E	8cc#	.	.
16C#	.	.	.
16E	8bn	.	.
16G#	.	.	.
16F#	[4.a#	.	8ee]
16G#	.	.	.
16A#	.	.	8ff#
16F#	.	.	.
16A#	.	.	8ee
16c#	.	.	.
=20	=20	=20	=20
16BB	8a#]	2.ryy	[4.dd#
16C#	.	.	.
16D#	8b	.	.
16BB	.	.	.
16D#	8a#	.	.
16F#	.	.	.
16E	[4.g#	.	8dd#]
16F#	.	.	.
16G#	.	.	8ee
16E	.	.	.
16G#	.	.	8dd#
16B	.	.	.
=21	=21	=21	=21
16AA#	8g#]	2.ryy	[4.cc#
16BB	.	.	.
16C#	8a#	.	.
16AA#	.	.	.
16C#	8g#	.	.
16E	.	.	.
16D#	4.f##	.	8cc#]
16E#	.	.	.
16F##	.	.	8dd#
16D#	.	.	.
16F##X	.	.	8cc#
16A#	.	.	.
=22	=22	=22	=22
16G#	8g#	2.ryy	16b
16A#	.	.	16a#
16B	8r	.	16g#
16D#	.	.	16b
16E	8r	.	16cc#
16G#	.	.	16ee
16F#	4r	.	16a#
16G#	.	.	16g#
16A#	.	.	16f#
16C#	.	.	16a#
16D#	8r	.	16b
16F#	.	.	16dd#
=23	=23	=23	=23
16E	4r	2.ryy	16g#
16F#	.	.	16dd#
16G#	.	.	16cc#
16BB	.	.	16b
16C#	8r	.	16a#
16E	.	.	16g#
16D#	8r	.	16f##
16E#	.	.	16g#
16F##	8r	.	16a#
16AA#	.	.	16f##
16BB	[8g#	.	16g#
16D#	.	.	16b
=24	=24	=24	=24
16C#	8g#]	2.ryy	8ee
16D#	.	.	.
16E	8g#	.	8ee
16BB	.	.	.
16C#	8g#	.	8ee
16E	.	.	.
16AAn	8cc#	.	8ee
16C#	.	.	.
16E	8cc#	.	8ee
16GG#	.	.	.
16C#	8cc#	.	8ee
16E	.	.	.
=25	=25	=25	=25
[4.FF##	16cc#	2.ryy	[4.ee
.	16b	.	.
.	16a#	.	.
.	16cc#	.	.
.	16b	.	.
.	16g#	.	.
8.FF##]	[4.a#	.	16ee]
.	.	.	16dd#
.	.	.	16cc#
16F##X	.	.	16aa#
16G#	.	.	16ee
16A#	.	.	16cc#
=26	=26	=26	=26
4BB	8a#]	2.ryy	16dd#
.	.	.	16cc#
.	4g#	.	16b
.	.	.	16dd#
8E	.	.	16cc#
.	.	.	16a#
8C#	4r	.	16b
.	.	.	16a#
8D#	.	.	16g#
.	.	.	16b
8DD#	8r	.	16a#
.	.	.	16f##
=27	=27	=27	=27
16GG#	8r	2.ryy	[2.g#
16AA#	.	.	.
16BB#	8f#X	.	.
16GG#	.	.	.
16BB#	8d#	.	.
16D#	.	.	.
8F#	16c#	.	.
.	16B#	.	.
8E	16c#	.	.
.	16d#	.	.
8D#	16e	.	.
.	16f#	.	.
=28	=28	=28	=28
*	*staff:1	*staff:2	*
*	*clefF4	*	*
2.C#	16e	4ryy	2.g#_
.	16d#	.	.
.	16c#	.	.
.	16e	.	.
.	16c#	8ryy	.
.	16A#	.	.
.	8F##	16r	.
.	.	16e	.
.	8G#	16d#	.
.	.	16c#	.
.	8A#	16B#	.
.	.	16c#	.
=29	=29	=29	=29
2.GG#	2.B#	2.d#;y	2.g#;]
==	==	==	==
*-	*-	*-	*-
!!!AFR:  prelude
!!!EFL:  35/96
!!!END:  1994/01/18/
!!!VID:  3478561316 Bach, BWV 863-01
!!!AST:  Baroque
!!!OCY:  Deutschland
!!!ODT:  1722///
!!!PDT:  1801///
!!!EED:  Walter Hewlett
!!!ENC:  Walter Hewlett
!!!YOR:  Bach Gesellschaft Edition xiv
!!!AFT:  enhanced SCORE
!!!RDT:  2011/10/07/ by Andreas Kornstaedt using massScr2hmd
!!!SCA1: Thematisch-systematisches Verzeichnis der musikalischen Werke 
!!!SCA2: Johann Sebastian Bach: Bach-Werke-Verzeichnis (Schmieder)
!!!YEC1: Copyright 1994, 2000 Center for Computer Assisted Research 
!!!YEC2: in the Humanities
!!!YEM1: Rights to all derivative editions reserved.
!!!YEM2: Refer to licensing agreement for further details.
!!!YEN:  United States of America
!!!ref:  @{OTL}, @{SCT}
!!muse2ps: T^@{OTL} @{ONM} in @{OKY}^C^J.S. Bach\n@{SCT}-@{OMV}^
!!muse2ps: u^@{OPR@ENG}, @{OVM@ENG}^j
